Papirus-nordic/24x24/places/folder-red-remote-open.svg

<svg xmlns="http://www.w3.org/2000/svg" width="24" height="24" version="1"><rect width="20" height="12" x="2" y="9.5" rx="1" ry="1" opacity=".2"/><path d="M2 17c0 .554.446 1 1 1h18c.554 0 1-.446 1-1V6c0-.554-.446-1-1-1H11V4c0-.554-.446-1-1-1H3c-.554 0-1 .446-1 1" fill="#ae4f58"/><rect width="20" height="10" x="2" y="10.5" rx="1" ry="1" opacity=".2"/><rect width="16" height="8" x="4" y="7" rx="1" ry="1" fill="#e4e4e4"/><rect width="20" height="10" x="2" y="11" rx="1" ry="1" fill="#bf616a"/><path d="M3 3c-.554 0-1 .446-1 1v.5c0-.554.446-1 1-1h7c.554 0 1 .446 1 1V4c0-.554-.446-1-1-1zm8 2v.5h10c.554 0 1 .446 1 1V6c0-.554-.446-1-1-1z" opacity=".1" fill="#fff"/><path d="M11 13a2.547 2.547 0 0 0-2 2H7v1h2a2.552 2.552 0 0 0 2 2zm1 0v5a2.548 2.548 0 0 0 2-2h2v-1h-2a2.553 2.553 0 0 0-2-2z" fill="#974a4d"/></svg>

<svg xmlns="http://www.w3.org/2000/svg" width="24" height="24" version="1">
 <rect style="opacity:0.2" width="20" height="12" x="2" y="9.5" rx="1" ry="1"/>
 <path style="fill:#ae4f58" d="M 2,17 C 2,17.554 2.446,18 3,18 H 21 C 21.554,18 22,17.554 22,17 V 6 C 22,5.446 21.554,5 21,5 H 11 V 4 C 11,3.446 10.554,3 10,3 H 3 C 2.446,3 2,3.446 2,4"/>
 <rect style="opacity:0.2" width="20" height="10" x="2" y="10.5" rx="1" ry="1"/>
 <rect style="fill:#e4e4e4" width="16" height="8" x="4" y="7" rx="1" ry="1"/>
 <rect style="fill:#bf616a" width="20" height="10" x="2" y="11" rx="1" ry="1"/>
 <path style="opacity:0.1;fill:#ffffff" d="M 3,3 C 2.446,3 2,3.446 2,4 V 4.5 C 2,3.946 2.446,3.5 3,3.5 H 10 C 10.554,3.5 11,3.946 11,4.5 V 4 C 11,3.446 10.554,3 10,3 Z M 11,5 V 5.5 H 21 C 21.554,5.5 22,5.946 22,6.5 V 6 C 22,5.446 21.554,5 21,5 Z"/>
 <path style="fill:#974a4d" d="M 11,13 C 9.989,13.202 9.202,13.99 9,15 H 7 V 16 H 9 C 9.202,17.009 9.991,17.797 11,18 Z M 12,13 V 18 C 13.01,17.798 13.798,17.01 14,16 H 16 V 15 H 14 C 13.797,13.991 13.009,13.203 12,13 Z"/>
</svg>
